components/Icon/icons/linkedIn.svg

<svg width="50" height="50" viewBox="0 0 50 50" fill="none" xmlns="http://www.w3.org/2000/svg">
<path d="M41.3916 5.46875H8.6084C6.875 5.46875 5.46875 6.875 5.46875 8.6084V41.3916C5.46875 43.125 6.875 44.5312 8.6084 44.5312H41.3916C43.125 44.5312 44.5312 43.125 44.5312 41.3916V8.6084C44.5312 6.875 43.125 5.46875 41.3916 5.46875V5.46875ZM41.3916 41.4062C19.5264 41.4014 8.59375 41.3965 8.59375 41.3916C8.59863 19.5264 8.60352 8.59375 8.6084 8.59375C30.4736 8.59863 41.4062 8.60352 41.4062 8.6084C41.4014 30.4736 41.3965 41.4062 41.3916 41.4062ZM11.2598 20.1123H17.0557V38.7549H11.2598V20.1123ZM14.1602 17.5635C16.0107 17.5635 17.5195 16.0596 17.5195 14.2041C17.5195 13.7629 17.4326 13.3261 17.2638 12.9185C17.095 12.5109 16.8475 12.1406 16.5356 11.8287C16.2236 11.5167 15.8533 11.2693 15.4457 11.1004C15.0382 10.9316 14.6013 10.8447 14.1602 10.8447C13.719 10.8447 13.2822 10.9316 12.8746 11.1004C12.467 11.2693 12.0967 11.5167 11.7847 11.8287C11.4728 12.1406 11.2253 12.5109 11.0565 12.9185C10.8877 13.3261 10.8008 13.7629 10.8008 14.2041C10.7959 16.0596 12.2998 17.5635 14.1602 17.5635ZM26.4795 29.5312C26.4795 27.0996 26.9434 24.7461 29.9561 24.7461C32.9248 24.7461 32.9688 27.5244 32.9688 29.6875V38.7549H38.7598V28.5303C38.7598 23.5107 37.6758 19.6484 31.8115 19.6484C28.9941 19.6484 27.1045 21.1963 26.3281 22.6611H26.25V20.1123H20.6885V38.7549H26.4795V29.5312Z" fill="black"/>
</svg>

<svg xmlns="http://www.w3.org/2000/svg" viewBox="0 5 45 45" width="50" height="50" fill="currentColor"  xmlns:v="https://vecta.io/nano"><path d="M41.392 5.469H8.608a3.14 3.14 0 0 0-3.14 3.14v32.783a3.14 3.14 0 0 0 3.14 3.14h32.783a3.14 3.14 0 0 0 3.14-3.14V8.608a3.14 3.14 0 0 0-3.14-3.14h0zm0 35.937l-32.798-.015.015-32.798 32.798.015-.015 32.798zM11.26 20.112h5.796v18.643H11.26V20.112zm2.9-2.549c1.851 0 3.359-1.504 3.359-3.359a3.36 3.36 0 0 0-.984-2.375 3.36 3.36 0 0 0-2.375-.984 3.36 3.36 0 0 0-2.375.984 3.36 3.36 0 0 0-.984 2.375c-.005 1.855 1.499 3.359 3.359 3.359zM26.48 29.531c0-2.432.464-4.785 3.477-4.785 2.969 0 3.013 2.778 3.013 4.941v9.067h5.791V28.53c0-5.02-1.084-8.882-6.948-8.882-2.817 0-4.707 1.548-5.483 3.013h-.078v-2.549h-5.561v18.643h5.791v-9.224z" fill="currentColor"/></svg>
